!!!COM: Haydn, Franz Joseph
!!!OTL: String Quartet in F Minor
!!!OPS: Opus 55
!!!ONM: No. 2
!!!OMD: Menuetto: Allegretto
!!!OMV: 3
!!!SCT: H III:61
!!!SCA: Thematisch-bibliographisches Werkevererzeichnis (A. van Hoboken)
!!!YOR: Dover Edition; reprint of Eulenburg Edition
!!!ENC: Frances Bennion
!!!CDT: 1732/3/31/-1809/5/31/
!!!CNT: Oesterreich
!!!YEC: Copyright (c) 1994, 2000 Center for Computer Assisted Research in the Humanities
!!!YEM: Rights to all derivative editions reserved.
!!!YEM: Refer to licensing agreement for further details.
!!!YEN: United States of America
**kern	**kern	**kern	**kern
*k[b-e-a-d-]	*k[b-]	*k[b-]	*k[b-e-a-d-]
*f:	*f:	*f:	*f:
*clefF4	*clefC3	*clefF	*clefF
*M3/4	*M3/4	*M3/4	*M3/4
2r	2r	2r	2r
4r	4c	4r	4r
=1	=1	=1	=1
2.r	4A	2.r	2r
.	4F	.	.
.	8E	.	4cc
.	8F	.	.
=2	=2	=2	=2
2.r	4B-	2.r	4cc
.	4A	.	4cc
.	8E	.	4cc
.	8F	.	.
=3	=3	=3	=3
2.r	4.d	2.r	4cc
.	.	.	4b-
.	8e	.	.
.	8f	.	4b-
.	8g	.	.
=4	=4	=4	=4
2.r	4.c	2.r	4b-
.	.	.	4a
.	8d	.	.
.	8e	.	4a
.	8f	.	.
=5	=5	=5	=5
2.r	2B-	2.r	8a
.	.	.	8g
.	.	.	8b-
.	.	.	8a
.	4B	.	8g
.	.	.	8f
=6	=6	=6	=6
2.r	2c	2.r	8f
.	.	.	8e
.	.	.	8d
.	.	.	8c
.	4r	.	4cc
=7	=7	=7	=7
2.r	2r	2.r	4a
.	.	.	4f
.	4c	.	8e
.	.	.	8f
=8	=8	=8	=8
2.r	4c	2.r	4b-
.	4c	.	4a
.	4c	.	8e
.	.	.	8f
=9	=9	=9	=9
2.r	4c	2.r	4.dd
.	4B-	.	.
.	.	.	8ee
.	4B-	.	8ff
.	.	.	8gg
=10	=10	=10	=10
2.r	4B-	2.r	4.cc
.	4A	.	.
.	.	.	8dd
.	4A	.	8ee
.	.	.	8ff
=11	=11	=11	=11
2.r	2B-	2.r	8ee
.	.	.	8dd
.	.	.	8cc
.	.	.	8b-
.	4c	.	8a
.	.	.	8g
=12	=12	=12	=12
2r	4f	2.r	4f
.	4F	.	2r
4c	4r	.	.
=13	=13	=13	=13
4A	2.r	2r	2.r
4F	.	.	.
8E	.	4cc	.
8F	.	.	.
=14	=14	=14	=14
4B-	2.r	4cc	2r
4A	.	4cc	.
8E	.	4cc	8ccc
8F	.	.	8aa
=15	=15	=15	=15
4.d	2.r	4cc	8gg
.	.	.	8ff
.	.	4b-	8bb-
8e	.	.	8aa
8f	.	4b-	8gg
8g	.	.	8ff
=16	=16	=16	=16
4.c	2.r	4b-	8ff
.	.	.	8ee
.	.	4a	8aa
8d	.	.	8gg
8e	.	4a	8ff
8f	.	.	8ee
=17	=17	=17	=17
2B-	2.r	8a	8dd
.	.	8g	8ddd
.	.	8b-	8ddd
.	.	8a	8ccc
4B	.	8g	8bb-
.	.	8f	8aa
=18	=18	=18	=18
4c	2r	8f	4gg
.	.	8e	.
2r	.	8d	2r
.	.	8c	.
.	4E	4cc	.
=19	=19	=19	=19
2r	4F	4a	2.r
.	4A	4f	.
4c	8B-	8e	.
.	8A	8f	.
=20	=20	=20	=20
4c	4E	4b-	2.r
4c	4F	4a	.
4c	4A	8e	.
.	.	8f	.
=21	=21	=21	=21
4c	4F#	4.dd	8a
.	.	.	8aa
4B-	4G	.	8b-
.	.	8ee	8bb-
4B-	4F	8ff	4r
.	.	8gg	.
=22	=22	=22	=22
4B-	4E	4.cc	8g
.	.	.	8gg
4A	4F	.	8a
.	.	8dd	8aa
4AA	4c	8ee	4r
.	.	8ff	.
=23	=23	=23	=23
2BB-	4d	8ee	8ccc
.	.	8dd	8bb-
.	4r	8cc	8aa
.	.	8b-	8gg
4C	8c	8a	8ff
.	8B-	8g	8ee
=24	=24	=24	=24
4FF	4A	4f	4ff
4F	4r	4r	4r
4C	4r	4r	4r
=25	=25	=25	=25
4C	2r	2r	2.r
4C	.	.	.
4C	4d	4f	.
=26	=26	=26	=26
4C	4d	4f	2.r
4BB	4d	4f	.
4BB	4d	4f	.
=27	=27	=27	=27
4BB	4d	4f	2r
4BB-	4e	4g	.
4BB-	4e	4g	4cc
=28	=28	=28	=28
4BB-	4e	4g	4cc
4AA	4f#	4a	4cc
4AA	4f#	4a	4cc
=29	=29	=29	=29
2GG	4f#	4a	4cc
.	4g	4g	4b-
4CC#	4c#	4g	4b-
=30	=30	=30	=30
[2.DD	2d	4g	4b-
.	.	4f#	4a
.	4F#	4a	4dd
=31	=31	=31	=31
2.DD_	4G	4b-	4b-
.	4B-	2r	4g
.	8c	.	8f#
.	8B-	.	8g
=32	=32	=32	=32
2.DD_	4F#	4a	4cc
.	4G	4g	4b-
.	4r	4r	8f#
.	.	.	8g
=33	=33	=33	=33
2.DD_	4c	4f#	4ee-
.	4B-	4g	4dd
.	4r	4r	8cc#
.	.	.	8dd
=34	=34	=34	=34
2DD]	4g	4cc#	4bb-
.	4f#	4dd	4aa
4F#	4f#	4a	4cc
=35	=35	=35	=35
4G	4g	4g	4b-
4BB-	4B-	8b-	8dd
.	.	8a	8cc
4D	4d	8g	8b-
.	.	8f#	8a
=36	=36	=36	=36
4G	4G	4g	4g
4GG	2r	2r	4r
4r	.	.	4b-
=37	=37	=37	=37
[2.EE-	2G	2.B-	4g
.	.	.	4e-
.	8A-	.	8d
.	8G	.	8e-
=38	=38	=38	=38
2EE-]	4D	4f	4a-
.	4E-	4e-	4g
4r	4r	4b-	4b-
=39	=39	=39	=39
2r	2.r	4g	4b-
.	.	4e-	4b-
8BB-	.	8d	4b-
8D	.	8f	.
=40	=40	=40	=40
2E-	2.r	4a-	4b-
.	.	4g	4b
8C	.	8e	4cc
8E	.	8g	.
=41	=41	=41	=41
2F	2.r	4b-	4cc
.	.	4a	4cc#
8D	.	8f#	4dd
8F#	.	8a	.
=42	=42	=42	=42
2.G	2.r	4cc	4dd
.	.	4b-	4ee-
.	.	4b-	4ee
=43	=43	=43	=43
2F	2.r	4a	4ff
.	.	4f	4dd
4G	.	4d	4b
=44	=44	=44	=44
[2.C	2r	4f	4dd
.	.	4e	4cc
.	4E	4g	4cc
=45	=45	=45	=45
2.C_	4F	4a	4a
.	4A	2r	4f
.	8B-	.	8e
.	8A	.	8f
=46	=46	=46	=46
2.C_	4E	4g	4b-
.	4F	4f	4a
.	4A	4r	8e
.	.	.	8f
=47	=47	=47	=47
2.C_	4c	4a 4f	4.dd
.	4B-	4b- 4g	.
.	.	.	8ee
.	4B-	4b- 4g	8ff
.	.	.	8gg
=48	=48	=48	=48
2C]	4B-	4e 4g	4.cc
.	4A	4a 4f	.
.	.	.	8dd
4AA	4A	4cc	8ee
.	.	.	8ff
=49	=49	=49	=49
2BB-	2B-	8cc	8ee
.	.	8b-	8dd
.	.	8a	8cc
.	.	8g	8b-
4C	4c	8f	8a
.	.	8e	8g
=50	=50	=50	=50
4D	4d	4f	4f
2r	2r	2r	4r
.	.	.	8e
.	.	.	8f
=51	=51	=51	=51
2.r	4d	2f	4b-
.	4c	.	4a
.	4r	4r	8e
.	.	.	8f
=52	=52	=52	=52
2.r	4B-	2f	4dd
.	4A	.	4cc
.	4r	4r	8b
.	.	.	8cc
=53	=53	=53	=53
2.C	2.B-	2.e 2.G	8bb-
.	.	.	8gg
.	.	.	8ee
.	.	.	8cc
.	.	.	8b-
.	.	.	8g
=54	=54	=54	=54
4FF	4A	4f 4A	4a 4ff 4f
4r	4r	4r	4r
*f:	*f:	*f:	*f:
4r	4r	4r	4f
=55	=55	=55	=55
2r	2r	2r	4e
.	.	.	4g
4DD-	4D-	4d-	4d-
=56	=56	=56	=56
2CC	2C	2c	2c
4r	4r	4r	4g
=57	=57	=57	=57
2r	2r	2r	4f
.	.	.	4a-
4DD-	4D-	4d-	4d-
=58	=58	=58	=58
2CC	2C	2c	2c
4r	4r	4r	4a-
=59	=59	=59	=59
2r	2r	2r	4g
.	.	.	4b-
4DD-	4D-	4d-	4d-
=60	=60	=60	=60
2CC	2C	4c	4c
.	.	4cc	4ee-
4DD-	4f	4b-	4dd-
=61	=61	=61	=61
2.EE-	2e-	4a-	4cc
.	.	4cc	4ee-
.	4B-	4d-	4g
=62	=62	=62	=62
4AA-	4A-	4c	4a-
4A-	4r	4r	4r
4r	4r	4r	4a-
=63	=63	=63	=63
2r	2.r	2r	4g
.	.	.	4b-
4G	.	4B-	4e-
=64	=64	=64	=64
2A-	2r	2c-	2d
4A-	4c-	4d	4f
=65	=65	=65	=65
4G	4B-	4e-	4e-
4E-	4E-	4g	4b-
4D	4D	4a-	4cc-
=66	=66	=66	=66
2E-	2E-	2g	2b-
4r	4r	4r	4ee-
=67	=67	=67	=67
2.r	2r	2r	4dd
.	.	.	4ff
.	4d	4a-	4cc-
=68	=68	=68	=68
2.r	2e-	2g	4b-
.	.	.	4ee-
.	4c	4g-	4b--
=69	=69	=69	=69
2.r	2.d-	[2.f	4a-
.	.	.	4dd-
.	.	.	4cc
=70	=70	=70	=70
2.r	2.d	4f]	[2.b-
.	.	4b-	.
.	.	4a-	.
=71	=71	=71	=71
2.r	2.e-	[2.g	4b-]
.	.	.	4ee-
.	.	.	4dd-
=72	=72	=72	=72
2.r	2.e	4g]	[2.cc
.	.	4cc	.
.	.	4b-	.
=73	=73	=73	=73
2.r	4f	4a-	4cc]
.	4F	4cc	4aa-
.	4G	4b-	4gg
=74	=74	=74	=74
2.r	4A-	2a-	4ff
.	4F	.	4dd-
.	4G	4f	4b
=75	=75	=75	=75
2.r	4C	4e	4cc
.	4c	4e	4g
.	4B	4f	4a-
=76	=76	=76	=76
2r	4c	4e	4g
.	4C	2r	2r
4FF	4r	.	.
=77	=77	=77	=77
4EE	2r	2r	2r
4GG	.	.	.
4DD-	[4f	[4b	[4ff
=78	=78	=78	=78
2CC	4f]	4b]	4ff]
.	4g	4cc	4ee
4GG	4r	4r	4r
=79	=79	=79	=79
4FF	2r	2r	2r
4AA-	.	.	.
4DD-	[4b	[4ff	[4aa-
=80	=80	=80	=80
2CC	4b]	4ff]	4aa-]
.	4cc	4ee	4gg
4AA-	4r	4r	4r
=81	=81	=81	=81
4GG	2r	2r	2r
4BB-	.	.	.
4DD-	4f	4ff	[4bb-
=82	=82	=82	=82
[2.CC	2g	2ee	4bb-]
.	.	.	4gg
.	4g	4ee 4b-	4ddd-
=83	=83	=83	=83
2.CC_	[2.g	[2.ee [2.b-	4.ddd-
.	.	.	8ccc
.	.	.	16bb-
.	.	.	16aa-
.	.	.	16gg
.	.	.	16ff
=84	=84	=84	=84
4CC]	4g]	4ee] 4b-]	8ee
.	.	.	4.r
4r	4r	4r	.
4r	4e	4cc	4bb-
=85	=85	=85	=85
2.r	2f	2cc	4aa-
.	.	.	4ccc
.	4a-	4cc	4ff
=86	=86	=86	=86
2.r	2g	2b-	4ee
.	.	.	4gg
.	4f	4a-	4dd-
=87	=87	=87	=87
2.r	2e	2g	4cc
.	.	.	4gg
.	4d	4f	4b
=88	=88	=88	=88
2.r	2c	2e	4b-
.	.	.	4gg
.	4r	4r	4r
=89	=89	=89	=89
2r	2r	2r	2r
4EE	4G	4B-	4d-
=90	=90	=90	=90
2FF	2A-	2A-	4c
.	.	.	4a-
4DD-	4F	4A-	4B
=91	=91	=91	=91
2CC	2F	2A-	4c
.	.	.	4cc
4CC	4G	4B-	4e
=92	=92	=92	=92
4FF	4F	4A-	4f
2r	2r	2r	2r
==	==	==	==
*-	*-	*-	*-
!!!RWG1: This file contains only pitch and duration data.
!!!RWG2: Transposing instruments are not transposed.
!!!RWG3: Spines may have incompatible meters.
!!!RWG4: Durations of rests and tied notes may be interpreted.
!!!RWG: Key is interpreted using the Humdrum key tool.
!!!GTL: 6 Quators ("Tost I + II")
!!!OPT: The Razor
!!!AFT: stage1
!!!END: 1997/04/15
!!!KEY: 586270765
!!!EMD: Converted from MuseData to Humdrum Dec 16, 2000, by Andreas Kornstaedt using muse2kern.
!!!EMD: Manual editing by Craig Sapp, Nov 2001
